dist/img/corp/common-icon1.svg

<svg width="51" height="50" viewBox="0 0 51 50" fill="none" xmlns="http://www.w3.org/2000/svg">
<path d="M46.5026 25V35.4167C46.5026 41.6667 42.3359 45.8333 36.0859 45.8333H15.2526C9.0026 45.8333 4.83594 41.6667 4.83594 35.4167V25C4.83594 19.3333 8.2526 15.375 13.5651 14.7083C14.1068 14.625 14.6693 14.5833 15.2526 14.5833H36.0859C36.6276 14.5833 37.1484 14.6041 37.6484 14.6875C43.0234 15.3125 46.5026 19.2917 46.5026 25Z" stroke="#FC00FF" stroke-width="2" stroke-linecap="round" stroke-linejoin="round"/>
<path d="M37.6497 14.6875C37.1497 14.6042 36.6289 14.5834 36.0872 14.5834H15.2539C14.6706 14.5834 14.1081 14.625 13.5664 14.7083C13.8581 14.125 14.2747 13.5834 14.7747 13.0834L21.5456 6.29166C24.3997 3.45833 29.0247 3.45833 31.8789 6.29166L35.5247 9.97921C36.8581 11.2917 37.5664 12.9583 37.6497 14.6875Z" stroke="#FC00FF" stroke-width="2" stroke-linecap="round" stroke-linejoin="round"/>
<path d="M46.5026 26.0417H40.2526C37.9609 26.0417 36.0859 27.9167 36.0859 30.2083C36.0859 32.5 37.9609 34.375 40.2526 34.375H46.5026" stroke="#FC00FF" stroke-width="2" stroke-linecap="round" stroke-linejoin="round"/>
</svg>

<svg width="51" height="50" viewBox="0 0 51 50" fill="none" xmlns="http://www.w3.org/2000/svg"><path d="M46.503 25v10.417c0 6.25-4.167 10.416-10.417 10.416H15.253c-6.25 0-10.417-4.166-10.417-10.416V25c0-5.667 3.417-9.625 8.73-10.292a11.093 11.093 0 011.687-.125h20.833c.542 0 1.062.021 1.562.104 5.375.626 8.855 4.605 8.855 10.313z" stroke="#FC00FF" stroke-width="2" stroke-linecap="round" stroke-linejoin="round"/><path d="M37.65 14.688a9.53 9.53 0 00-1.563-.105H15.254c-.583 0-1.146.042-1.688.125.292-.583.709-1.125 1.209-1.625l6.77-6.791c2.855-2.834 7.48-2.834 10.334 0l3.646 3.687a7.029 7.029 0 012.125 4.709zm8.853 11.354h-6.25a4.179 4.179 0 00-4.167 4.166 4.179 4.179 0 004.167 4.167h6.25" stroke="#FC00FF" stroke-width="2" stroke-linecap="round" stroke-linejoin="round"/></svg>
